X: 246
%
T: Masons Apron
T: 'S' coma leam do bhean Taighe
T: I Don't Like the Guidewife
C:
O:Scotland
B:Keith Norman MacDonald : "The Skye collection of the best reels & strathspeys extant" : 1887
Z:Ralph Palmer
R:Reel
M:C
L:1/8
K:A
u(3(efg) !segno!| a>A A/2A/2A ABAF | EFAB c2 u(BA) | b>B B/2B/2B BcBA | Bcde f2 (3efg |
a>A A/2A/2A ABAF | EFAB c2 BA | Bcde fefa | A/2A/2A c>B A2 A ||
e | {/d}cAeA fAeA | {/d}cAeA Tfedc | dBfB bBfB | dBfB Tf2 ed |
cAeA fAeA | ce{/g}af fedc | dcde fgaf | edcB Aagb !segno!|]


